icon-themes/sifr_svg/cmd/lc_openreadonly.svg

<svg viewBox="0 0 24 24" xmlns="http://www.w3.org/2000/svg"><path d="m9 2c-1.1 0-2 .9-2 2v9h2v-7-2h6v5h5v1.6l2-1.17v-.43-.3c0-.4-.31822-.8-.6-1.07l-5.3375-5.23c-.2825-.2571806-.6625-.4-1.0625-.4zm-4 6h-2c-1.104569 0-2 .9-2 2v11c0 .264731.05363.517475.1484375.75l1.9824219-1.169922c-.076036-.126735-.1308594-.267129-.1308594-.425781v-.154297c-.0064-1.7 0-4.44 0-6 0-1.1.9-2 2-2zm18 2-22 13v1h22zm-17 5-1.140625 4.558594 7.712891-4.558594zm14 1v5h-9z" fill="#555753"/></svg>

<svg xmlns="http://www.w3.org/2000/svg" viewBox="0 0 24 24">
  <path
     style="fill:#555753"
     d="M 9,2 C 7.9,2 7,2.9 7,4 v 9 H 9 V 6 4 h 6 v 5 h 5 v 1.6 L 22,9.43 V 9 8.7 C 22,8.3 21.68178,7.9 21.4,7.63 L 16.0625,2.4 C 15.78,2.1428194 15.4,2 15,2 Z M 5,8 H 3 C 1.895431,8 1,8.9 1,10 v 11 c 0,0.264731 0.05363,0.517475 0.1484375,0.75 L 3.1308594,20.580078 C 3.0548234,20.453343 3,20.312949 3,20.154297 V 20 C 2.9936,18.3 3,15.56 3,14 3,12.9 3.9,12 5,12 v 0 z M 23,10 1,23 v 1 H 23 Z M 6,15 4.859375,19.558594 12.572266,15 Z m 14,1 v 5 h -9 z"
     />
</svg>
